X: 1
T: Kate and Rose's
M: C|
L: 1/8
K: Dm
%%text Skip the pickup on transition.
E | \
"Dm"FD (3.D.D.D AD (3.D.D.D |dDDd dcAG |   FD (3.D.D.D AGFD |"C"EDCD "A"EFGE |
"Dm"FD (3.D.D.D AD (3.D.D.D |dDDd dcAG |"F"F2    cF    dFcF |"C"E3 E    EDC :||:
K: G
e | \
"D"fd (3.d.d.d fdad |f3 f fede |"D"fd (3.d.d.d fdad |"C"cBAB "Am"cBAe |
"D"fd (3.d.d.d fdad |f3 f fedB |"C"c2    gc    acgc |["normal""G"B3 B     BAG :|["transition""G"B3z"E7"z4|]
%%text 05/22/10 

#include "RightHeader.h"
%%text Set 104, continued
$SmallLMargin
$SmallRMargin
%%scale .8
